tools/download-figma-icons/icons/outlined-medium/enercity-portal.svg

<svg width="24" height="24" viewBox="0 0 24 24" fill="none" xmlns="http://www.w3.org/2000/svg">
<path fill-rule="evenodd" clip-rule="evenodd" d="M20.9955 20.9999H3.00461C2.19461 20.9999 1.50011 19.9859 1.50011 19.1564V7.49996H22.5V19.5314C22.5 20.3414 21.825 20.9999 20.9955 20.9999ZM3.00461 2.99998H20.9955C21.825 2.99998 22.5 3.65848 22.5 4.46848V5.99997H1.50011V4.46848C1.50011 3.65848 2.17436 2.99998 3.00461 2.99998ZM20.9955 1.49999H3.00461C1.34787 1.49999 0.00012207 2.83124 0.00012207 4.46848V19.1564C0.00012207 20.7344 1.28487 22.4999 3.00461 22.4999H20.9955C22.6523 22.4999 24 21.1686 24 19.5314V4.46848C24 2.83124 22.6523 1.49999 20.9955 1.49999ZM3.00001 5.24997C3.41475 5.24997 3.75 4.91473 3.75 4.49998C3.75 4.08523 3.41475 3.74998 3.00001 3.74998C2.58526 3.74998 2.25001 4.08523 2.25001 4.49998C2.25001 4.91473 2.58526 5.24997 3.00001 5.24997ZM5.99999 4.49998C5.99999 4.91473 5.66474 5.24997 5.25 5.24997C4.83525 5.24997 4.5 4.91473 4.5 4.49998C4.5 4.08523 4.83525 3.74998 5.25 3.74998C5.66474 3.74998 5.99999 4.08523 5.99999 4.49998ZM7.49998 5.24997C7.91473 5.24997 8.24998 4.91473 8.24998 4.49998C8.24998 4.08523 7.91473 3.74998 7.49998 3.74998C7.08524 3.74998 6.74999 4.08523 6.74999 4.49998C6.74999 4.91473 7.08524 5.24997 7.49998 5.24997ZM14.6195 13.3745C14.5183 11.8992 13.5995 11.0997 12.1955 11.0997C10.8178 11.0997 9.82252 12.05 9.56677 13.3745H14.6195ZM12.128 19.4997C9.17902 19.4997 6.94703 17.2917 6.94703 14.2497C6.94703 11.2325 9.17902 8.99975 12.1025 8.99975C15.437 8.99975 17.0532 11.3795 17.0532 14.2497C17.0532 14.4462 17.027 14.912 17.0015 15.182H9.48652C9.69127 16.409 10.8455 17.3652 12.128 17.3652C13.2822 17.3652 14.5392 16.7765 15.104 15.8442L16.925 17.2677C15.719 18.7145 14.3345 19.4997 12.128 19.4997Z" fill="black"/>
</svg>

<svg width="24" height="24" viewBox="0 0 24 24" fill="none" xmlns="http://www.w3.org/2000/svg"><path fill-rule="evenodd" clip-rule="evenodd" d="M20.995 21H3.006c-.81 0-1.505-1.014-1.505-1.844V7.5h21v12.031c0 .81-.675 1.469-1.505 1.469ZM3.006 3h17.99c.83 0 1.505.658 1.505 1.468V6h-21V4.468C1.5 3.658 2.174 3 3.005 3Zm17.99-1.5H3.006C1.348 1.5 0 2.831 0 4.468v14.688C0 20.734 1.285 22.5 3.005 22.5h17.99c1.657 0 3.005-1.331 3.005-2.97V4.468C24 2.831 22.652 1.5 20.995 1.5ZM3 5.25a.75.75 0 1 0 .001-1.499A.75.75 0 0 0 3 5.25Zm3-.75a.75.75 0 1 1-1.499.001A.75.75 0 0 1 6 4.5Zm1.5.75a.75.75 0 1 0 .001-1.499A.75.75 0 0 0 7.5 5.25Zm7.12 8.125c-.102-1.476-1.02-2.275-2.425-2.275-1.377 0-2.372.95-2.628 2.274h5.053ZM12.128 19.5c-2.949 0-5.181-2.208-5.181-5.25 0-3.018 2.232-5.25 5.155-5.25 3.335 0 4.951 2.38 4.951 5.25 0 .196-.026.662-.052.932H9.488c.204 1.227 1.358 2.183 2.641 2.183 1.154 0 2.411-.588 2.976-1.52l1.821 1.423c-1.206 1.447-2.59 2.232-4.797 2.232Z" fill="currentColor"/></svg>
